X: 29791
T: O'Byrne's
R: hornpipe
M: 4/4
K: Gmajor
G2 GD GBdB|cBAG FGAB|defd edBc|d2 ed cAFA|
G2 GD GBdB|c2 AG FGAB|d2 fd edDF|A2 G2 G2:|
d2 Bd gdBG|A2 DF AGFE|d2 Bd cAFD|G2 BF GDBD|
GDBD GBdB|cBAG FGAB|defd edDF|AGGF G2:|

